outputs/icons/general/add_task_round.svg

<svg xmlns="http://www.w3.org/2000/svg" width="1200" height="1200" fill="none"><path fill="#000" d="M1064.63 223.883c19.515 19.377 19.58 50.92.145 70.375L814.75 544.5 564.855 794.615c-19.525 19.54-51.195 19.545-70.726.015L352.75 653.25c-19.468-19.47-19.468-51.03 0-70.5s51.032-19.47 70.5 0L529.5 689l464.99-464.992c19.355-19.354 50.72-19.411 70.14-.125M600 1000c-220.5 0-400-179.5-400-400s179.5-400 400-400c74.93 0 145.305 20.956 205.475 57.216 5.02 3.025 11.475 2.334 15.62-1.81l54.85-54.85c5.5-5.503 4.695-14.652-1.82-18.911A501 501 0 0 0 600 100c-276 0-500 224-500 500s224 500 500 500c80.58 0 156.815-19.09 224.27-53.23 7.43-3.76 8.845-13.655 2.955-19.545l-57.07-57.07c-3.7-3.7-9.3-4.685-14.1-2.605C708.145 988.335 655.42 1000 600 1000m350-250H850c-27.615 0-50 22.385-50 50s22.385 50 50 50h100v100c0 27.615 22.385 50 50 50s50-22.385 50-50V850h100c27.615 0 50-22.385 50-50s-22.385-50-50-50h-100V650c0-27.615-22.385-50-50-50s-50 22.385-50 50z"/></svg>

<svg width="1200" height="1200" viewBox="0 0 1200 1200" fill="none" xmlns="http://www.w3.org/2000/svg"><path d="M1064.63 223.883C1084.145 243.26 1084.21 274.803 1064.775 294.258L814.75 544.5L564.855 794.615C545.33 814.155 513.66 814.16 494.129 794.63L352.75 653.25C333.282 633.78 333.282 602.22 352.75 582.75C372.218 563.28 403.782 563.28 423.25 582.75L529.5 689L994.49 224.008C1013.845 204.654 1045.21 204.597 1064.63 223.883ZM600 1000C379.5 1000 200 820.5 200 600C200 379.5 379.5 200 600 200C674.93 200 745.305 220.956 805.475 257.216C810.495 260.241 816.95 259.55 821.095 255.406L875.945 200.556C881.445 195.053 880.64 185.904 874.125 181.645C792.72 128.43 697.475 99.999 600 100C324 100 100 324 100 600C100 876 324 1100 600 1100C680.58 1100 756.815 1080.91 824.27 1046.77C831.7 1043.01 833.115 1033.115 827.225 1027.225L770.155 970.155C766.455 966.455 760.855 965.47 756.055 967.55C708.145 988.335 655.42 1000 600 1000ZM950 750H850C822.385 750 800 772.385 800 800C800 827.615 822.385 850 850 850H950V950C950 977.615 972.385 1000 1000 1000C1027.615 1000 1050 977.615 1050 950V850H1150C1177.615 850 1200 827.615 1200 800C1200 772.385 1177.615 750 1150 750H1050V650C1050 622.385 1027.615 600 1000 600C972.385 600 950 622.385 950 650V750Z" fill="black"/></svg>
